X:1
T:Title
%%score { 1 | 2 } { 3 | 4 }
L:1/8
Q:1/4=66
M:12/8
K:G
V:1 treble nm="ハープ"
V:2 bass 
V:3 treble nm="ハープ"
V:4 bass 
V:1
"^Adagio" Td12- | d6- d c2- c B2- | B A2- AdF G3- G/B/A/G/F/E/ | %3
 F/E/A/G/F/E/ FDE/F/4G/4 FA/G/F/E/ F/D/AB/^c/4d/4 | ^cd/c/B/A/ dAA/B/4=c/4 Bc/B/A/G/ AdF/G/4A/4 | %5
 GA/G/F/E/ F/E/D/E/F/G/ A/G/B/A/G/F/ E e2- | e/d/f/e/d/^c/ def- f/e/d/c/d/B/ c3- | %7
 c/B/d/^c/e/^d/ e3- e/g/f/=d/e/c/ Td3 | ^c/B/B/^A/A/B/ B/c<AB/ B2 z f/e/d/c/B | %9
 z z B/A/ G/F/E z z3 e/d/^c/B/A | z z A/G/ F/E/D z d/c/B/A/G/F/ G>ed/^c/ | %11
 B/A/g/f/e/d/ ^c/d/d/e/e- e/c/ d2- d/e/ATc | FA/G/F/E/ FDA/B/4c/4 Bd/c/B/A/ B/G/de/f/4g/4 | %13
 fg/f/e/d/ gdd/e/4=f/4 ef/e/d/c/ dgB/c/4d/4 | cd/c/B/A/ B/A/G/A/B/c/ d/c/e/d/c/B/ A/G/F/E/D | %15
 Td12- | d6- d c2- c B2- | B A2- AdF G g2- g/f/a/g/f/e/ | ^def- f/e/=d/c/d/B/ ^c^de- e/d/f/e/g/f/ | %19
 agf e/g/f/^d/e/g/ c'3- c'/b/b/^a/a/b/ | b>aa/g/ c'/b/a/g/Tf eB/A/G/F/ EBB/c/4d/4 | %21
 cBA- Ac/B/A/G/ FA/G/F/E/ DAA/B/4c/4 | BAG- Gb/a/g/=f/ e/d/c/B/c- c/a/g/^f/e/d/ | %23
 c/B/A/G/e- edc B/c/dA B/A/c/B/A/B/ | TG12- | G_B/A/G/F/ GEF/G/4A/4 GB/A/G/F/ G/=B/c/_e/_A/G/ | %26
 .F3 z3 TG6 | F12 |] z12 |[M:3/4]"^Allegro ma non presto"[Q:1/4=120] z2 z D G/A/B | %30
 TBA AF/G/ A/B/c | TcB Bd c/B/A/G/ | eg/f/ ed c/B/A/G/ | A/G/F/E/ D2 z d- | d/B/^c/d/ e/f/g Ac | %35
 d/A/B/^c/ d/e/f/g/ af | dB e/f/g/a/ bB | ^cA d/e/f/g/ a/=c/B/A/ | B/d/c/d/ B/d/A/d/ G/d/F/d/ | %39
 G/B/A/B/ G/B/F/B/ E/B/D/B/ | T^c6- | c/A/B/^c/ d/c/d/e/ c>d | d/D/E/F/ G/A/B/^c/ d/e/f | %43
 Tfe e^c/d/ e/f/g | gf fa g/f/e/d/ | ce/d/ ca/g/ f/e/d/c/ | B/A/G/F/ G/A/B/c/ d/G/g- | %47
 g/e/f/g/ a/b/c' df | g2 z2 z2 | Tb6- | b/b/a/^g/ a/b/c'/a/ d2- | d/a/g/f/ g/a/b/g/ c2- | %52
 c/g/f/e/ f/g/a/f/ B/e/d/c/ | d/e/f/d/ G/c/B/A/ B/c/d/B/ | E/F/G- G/B/A- A/B/c- | %55
 c/e/d- d/f/e- e/g/f | gf/e/ d/c/B/A/ G/A/B | TBA AF/G/ A/B/c | TcB Bd c/B/A/G/ | %59
 eg/f/ ed c/B/A/G/ | f/e/d/a/ B>A A>G | G2 z g d/c/B | Bc ce/d/ c/B/A | AB B2 e2- | e^d/e/ fd ef | %65
 cB B/^d/e/f/ ge | ^c/B/A/B/ c/e/f/g/ af | ^d^c/B/ Te4- | e4- eE | A2- A/c/B/A/ G/F/E/F/ | %70
 G/A/B/^c/ ^d/B/e e/4f/4g/f/e/ | e/g/f/g/ e/g/d/g/ ^c/g/B/g/ | ^c/e/d/e/ c/e/B/e/ ^A/e/B/e/ | %73
 ^A3 B ^cd | Te6- | e/^A/B/^c/ d/e/f/g/ c>B | B2 z2 z2 | z6 | z2 z d A/G/F | FG GB/A/ G/F/E | %80
 EF F/A/B/^c/ d/e/f/d/ | B2 z e d/^c/B/A/ | d2 z d/^c/ B/A/G/F/ | G2 z2 z2 | z2 z2 a2- | %85
 a/a/g/f/ g/a/b/g/ ^c/f/e/d/ | e/f/g/e/ A/d/^c/B/ c/d/e/c/ | F2 z2 z d- | d/B/^c/d/ e/f/g Ac | %89
 d/A/B/^c/ d/e/f/g/ af | dB e/f/g/a/ b/a/g/f/ | e/g/f/e/ d/^c/d/e/ c>d | Td6- | d6- | %94
 d2- d/D/E/F/ G/A/B | BA AF/G/ A/B/c | cB B/A/G/A/ B/c/d/B/ | GB/A/ B4- | %98
 B/E/F/G/ A/G/F/G/ A/B/c/A/ | FA/G/ A4- | A/c/B/A/ ^G/F/E/F/ G/A/B/G/ | EG/F/ G4- | %102
 G/B/A/G/ F/E/D/E/ F/G/A/F/ | D=F/E/ F4- | FE/D/ E/^F/G/A/ B/c/d/e/ | F/E/D/E/ F/G/A/B/ c/e/d/c/ | %106
 B/c/d/B/ G2 z g- | g/e/f/g/ a/b/c' dTf | g/D/E/F/ G/A/B/c/ dB | GE A/B/c/d/ e/f/g- | %110
 g/b/a/g/ f/e/d/^c/ d/e/f | fe e^c/d/ e/f/g | gf fa g/f/e/d/ | bd'/c'/ ba g/f/e/d/ | Te6- | %115
 e/e/d/e/ c/e/B/e/ A/e/c/e/ | Td6- | d/d/c/d/ B/d/A/d/ G/d/B/d/ | cc/B/ cc cc | cc/B/ cc cc | %120
 cc/B/ cc cc | c/B/A/G/ F/E/D z2 | z2 z D G/A/B | BA AF/G/ A/B/c | cB Bd c/B/A/G/ | %125
 eg/f/ ed c/B/A/G/ | F2 =F2 d2- | d2 c4- | c/c/B/A/ B/c/d/B/ E2- | E/B/A/G/ A/B/c/A/ D2- | %130
 D/a/g/f/ g/a/b/g/ c/=f/e/d/ | e/f/g/e/ A/d/c/B/ c/d/e/c/ | F/G/A- A/c/B- B/c/d- | %133
 d/f/e- e/g/f- f/a/g- | g/b/a/g/ f/e/d/c/ B/A/G/B/ | E/F/E/F/ TF3 E/F/ | G2 z D G/A/B | %137
 BA AF/G/ A/B/c | cB Bd c/B/A/G/ | eg/f/ ed c/B/A/G/ | f/e/d/a/ B>A A>G | G6 | z6 | %143
[M:4/4]"^Adagio e piano"[Q:1/4=66] B/^d/e/g/ B/d/e/g/ c/B/c/e/ c/B/c/e/ | %144
 A/c/^d/f/ A/c/d/f/ G/F/G/B/ G/F/G/B/ | E/F/^G/B/ e/f/^g/b/ ^ege^c | F/^G/A/^c/ f/^g/a/f/ ^B^dBG | %147
 B/d/^c/G/ A/^E/F/A/ D/=E/F/A/ d/e/f/A/ | ^DFEG EGEG- | G/_B/A/E/ =F/A/^c/d/ ^g>a c>d | %150
 d2 z2 d/f/g/b/ d/f/g/b/ | e/d/e/g/ e/d/e/g/ A/^c/d/f/ A/c/d/f/ | FAFD F/G/A/^d/ f/g/a/f/ | %153
 gbge E/^D/E/^A/ ^c/^d/e/g/ | =f^d e2- e/^f/g/e/ d>e | c/^d/e/a/ c/d/e/a/ B/d/e/g/ B/d/e/g/ | %156
 A/^d/e/f/ A/d/e/f/ G/d/e/b/ G/d/e/b/ | F/^d/e/^b/ F/d/e/b/ G/d/e/=b/ B/d/e/b/ | %158
 ^G/e/^e/b/ B/=e/=f/^g/ c/^d/e/a/ B/d/e/=g/ | ^A/^d/e/g/ B/d/e/g/ ^c/d/e/g/ f/e/d/e/ | %160
 !fermata!^d8 |]"^Presto"[Q:1/4=180] z4 z2 dc | B2 G2 g2 d2 | B2 AG d2 d2 | d2 cB cd e2 | %165
 e2 A2 A2 cB | c2 BA Bc d2 | d2 G2 G2 g2- | g2 f4 e2- | e2 d^c BABc | dAB^c defg | abag fed^c | %172
 B2 ba gfed | ^cBAB cdec | a2 A2 A2 ^c2 | d4 z2 f2 | efga defg | c6 BA | GFGA Bcde | dgfe dcBA | %180
 GBcd efge | agfg agfe | fagf edcd | BABc defg | ^c2 a2 B2 g2 | A^cBA G2 g2 | f3 e e3 d | %187
 dfed afed | cedc aedc | B^d^cB agfe | ^defg agaf | g2 B2 e2 g2 | b2 ^g2 e2 B2 | ^G2 B2 EFGA | %194
 Bcdc BAB^G | Te8- | e8- | e8- | e4- edcB | cde=f ABcd | Bcde ^GABc | ABcd F^GAB | ^GABE GBed | %203
 c2 A2 a2 e2 | c2 BA e2 e2 | e2 d^c de =f2- | f2 B2 B2 dc | d2 cB cd e2 | e2 A2 A2 B/c/d | %209
 c3 B B3 A | A2 a4 g2- | g2 fe ^d2 B2 | g4 f4 | e6 d^c | B2 b4 a2- | a2 ^gf ^e2 ^c2 | a4 ^g4 | %217
 f4 e4 | d6 ^cB | ^A2 ^c2 F2 A2 | B2 fe d2 B2 | b2 f2 d2 ^cB | gfga gfed | ^cded cBAG | %224
 fefg fed^c | B^cde fg ^A2 | B3 ^c ^A3 B | B2 f2 d2 B2 | z2 a2 f2 ^d2 | z2 c'2 a2 f2 | %230
 ^defg ac'ba | g2 z2 z2 B2 | G2 E2 z2 d2 | B2 ^G2 z2 =f2 | d2 B2 ^G3 A | A2 e2 ^c2 A2 | %236
 z2 g2 e2 ^c2 | z2 _b2 g2 e2 | ^cdef g_bag | f2 z2 z2 A2 | F2 D2 z2 c2 | A2 F2 z2 _e2 | %242
 c2 A2 FAdc | B2 G2 g2 d2 | B2 AG d2 d2 | d2 cB cd e2 | e2 A2 A2 cB | c2 BA Bc d2 | d2 G2 G2 =f2- | %249
 f2 e4 d2- | d2 cB AGAB | cGAB cde=f | gag=f edcB | A2 ag =fedc | BAGA BcdB | g2 G2 G2 B2 | %256
 c4 z2 e2 | defg cdef | BcdB GFGA | D2 EF GABc | dedc BAGF | E2 ed cBAG | FEDE FGAF | d2 D2 D2 F2 | %264
 G4 z2 B2 | AB^cd GABc | F2 f4 e2- | e2 de ^c3 d | dfed afed | c^d=dc afed | c'bag fede | %271
 fgab c'bc'a | b2 D2 G2 B2 | d2 G2 B2 d2 | B2 ^G2 E2 G2 | B2 d2 B2 ^G2 | e4 d4 | c6 BA | %278
 G2 g4 f2- | f2 ed ^c2 A2 | f4 e4 | d6 cB | A2 a4 g2- | g2 fe ^d2 B2 | g4 f4 | e4 d4- | d2 cB c4- | %287
 cBAB cedc | Bcde GABc | ABcd FGAB | GABc EFGA | FGAD FA d2 | Td8- | d8- | d4 c4- | cDFA cedc | %296
 BGFG g2 d2 | B2 AG d2 d2 | d2 cB cd e2 | e2 A2 A2 cB | c2 BA Bc d2 | d2 G2 G2 c2 | B3 A A3 G | %303
 G8 |] %304
V:2
 G,,B,,D, G,B,D G,B,,D, G,,B,,G,, | D,DC B,A,G, CA,E, F,G,E, | A,F,D, G,B,A, B,CG, D2 z | %3
 D,,F,,A,, D,F,A, D,F,,A,, D,,F,,D,, | A,,A,G, F,E,D, G,E,B,, ^C,D,B,, | %5
 E,^C,A,, D,F,E, F,G,D, A,2 G, | F,^G,^A, B,,^C,^D, E,2 z ^E,2 z | F,2 z ^G,2 z ^A,2 z B,A,G, | %8
 ^A,F,G, E,F,F,, B,,2 F,/E,/ D,/^C,/B,,^D, | E,B,/A,/G,/F,/ E,E,,G,, A,,2 E,/D,/ ^C,/B,,/A,,C, | %10
 D,A,/G,/F,/E,/ D,D,,F, G,A,B, E,F,G, | ^C,D,E, A,,B,,C, D,F,,G,, A,,G,,A,, | %12
 D,,F,,A,, D,F,D, G,B,,D, G,,B,,G,, | D,DC B,A,G, CA,E, F,G,E, | A,F,D, G,B,A, B,CA, D2 z | %15
 G,,B,,D, G,B,D G,B,,D, G,,B,,G,, | D,DC B,A,G, CA,E, F,G,E, | A,F,D, G,,B,,A,, B,,C,A,, D,2 C, | %18
 B,,^C,^D, E,F,^G, .A,2 z ^A,2 z | B,2 z ^C,2 z ^D,2 z E,D,C, | %20
 ^D,B,,C, A,,B,,B,,, E,,2 B,/A,/ G,/F,/E,^G, | A,E,/D,/C,/B,,/ A,,A,C D2 A,/G,/ F,/E,/D,F, | %22
 G,D,/C,/B,,/A,,/ G,,A,,B,, C,D,E, A,,B,,C, | F,,G,,A,, D,,E,,F,, G,,B,,C, D,C,D, | %24
 G,,2 z z3 =F,,2 z z3 | E,,2 z z3 _E,,2 z z3 | D,,2 z z3 T^C,,6 | D,,12 |] z12 | %29
[M:3/4] G,,2 B,,2 G,,2 | D,2 F,2 D,2 | G,2 z B, G,B, | CB, CD EE, | D,A,/G,/ F,E, F,D, | %34
 A,G,/F,/ E,A,, ^C,A,, | D,2 z2 D,,2 | A,,2 z2 E,,2 | A,,G,, F,,E,, F,,D,, | G,,2 G,F, E,D, | %39
 E,2 E,F, G,E, | A,B, ^CB, A,G, | F,E, D,G, A,A,, | D,2 z ^C, B,,A,, | G,,E,, A,,A,/G,/ F,E, | %44
 D,2 z F,/E,/ D,F, | A,C/B,/ A,/G,/F,/E,/ D,/C,/B,,/A,,/ | G,,2 z G,/A,/ B,G, | D2 z D,/E,/ F,D, | %48
 G,2 z B,,/A,,/ G,,B,, | D,=F,/E,/ D,/C,/B,,/A,,/ G,,/=F,,/E,,/D,,/ | C,,C/B,/ CC CC | %51
 CB,/A,/ B,B, B,B, | B,A,/G,/ A,D, G,A, | B,B,, E,F, G,G,, | C,B,, A,,C, D,E, | F,D, B,,C, D,B,, | %56
 E,F, G,F, E,D, | C,A,, D,C, B,,A,, | G,,2 z2 G,,2 | C,2 z2 A,,2 | D,B,, E,C, D,D,, | %61
 G,,B,/A,/ G,F, E,^G, | A,/B,/A,/G,/ F,D, E,F, | G,/A,/G,/F,/ E,D, ^C,E, | %64
 F,/G,/F,/E,/ ^D,B,, ^C,D, | E,E,, z/ B,,/^C,/^D,/ E,/F,/G, | G,F, F,^D,/E,/ F,/G,/A, | %67
 A,G, G,B, A,/G,/F,/E,/ | CE/D/ CB, A,/G,/F,/E,/ | F,/E,/^D,/^C,/ B,,D, E,=D, | %70
 C,B,, A,,G,,/A,,/ B,,B,,, | E,,2 z B,, ^C,D, | E,2 z E, F,G, | TF,6- | F,B, ^A,^G, F,E, | %75
 D,^C, B,,E, F,F,, | B,,B,/A,/ G,E, F,^G, | A,/B,/A,/G,/ F,D, E,F, | G,2 z/ F,/G,/A,/ B,B,, | %79
 E,F,/G,/ A,G, A,A,, | D,F,/E,/ D,^C, B,,A,, | G,,G,/F,/ G,G, G,G, | G,F,/E,/ F,F, F,F, | %83
 F,E,/D,/ E,A,, D,E, | F,F,, B,,^C, D,D,, | G,,F,, E,,G,, A,,B,, | ^C,A,, F,,G,, A,,F,, | %87
 B,,^C, D,C, B,,A,, | G,,E,, A,,G,, F,,E,, | D,,2 z2 D,2 | G,2 z2 E,2 | A,F, B,G, A,A,, | %92
 D,,2 z D, G,/A,/B, | B,A, A,F,/G,/ A,/B,/C | CB, B,G,/F,/ E,D, | C,B,,/A,,/ D,C, B,,A,, | %96
 G,,2 z2 G,,2 | C,2 z2 ^G,,2 | A,,2 z2 F,,2 | B,,2 z2 B,,2 | E,2 z2 E,,2 | A,,2 z2 A,,2 | %102
 D,2 z2 D,,2 | G,,2 z2 G,,2 | C,2 z/ C/B,/A,/ G,G,, | D,2 z/ D,/C,/B,,/ A,,D, | G,,2 B,,2 G,,2 | %107
 D,2 z D,/C,/ B,,A,, | G,,2 z2 G,,2 | C,2 z2 A,,2 | D,2 z ^C, B,,A,, | G,,E,, A,,G,, F,,E,, | %112
 D,,2 z2 D,2 | G,2 z D/C/ B,/A,/^G,/F,/ | ^G,A, G,F, E,G, | A,B, A,G, F,E, | F,G, F,E, D,F, | %117
 G,A, G,F, E,D, | E,/G,/F,/G,/ E,/G,/D,/G,/ C,/G,/B,,/G,/ | %119
 C,/E,/D,/E,/ C,/E,/B,,/E,/ A,,/E,/G,,/E,/ | A,,/C,/B,,/C,/ A,,/C,/G,,/C,/ F,,/C,/E,,/C,/ | %121
 D,,4 z/ C,/B,,/A,,/ | G,,A,, B,,C,/D,/ E,D, | C,E,/D,/ C,/B,,/A,,/G,,/ F,,D,, | G,,2 z2 E,,2 | %125
 C,,2 z C/B,/ A,/G,/F,/E,/ | D,E,/F,/ G,D, G,,B,, | C,E, A,B, A,G, | F,D, G,B,/A,/ G,/F,/E,/D,/ | %129
 C,2 z E,/D,/ C,/B,,/A,,/G,,/ | F,,D,, B,,G,, A,,B,, | C,E, F,^G, A,C, | D,C, B,,D, E,F, | %133
 G,E, C,D, E,C, | A,,B,,/C,/ D,B,, E,D, | C,B,,/A,,/ D,2 D,,2 | G,,2 z2 G,,2 | C,,2 z2 A,,2 | %138
 D,,D,/C,/ B,,A,, G,,G, | C,E,/D,/ C,B,, A,,B,,/C,/ | D,B,, E,C, D,D,, | G,,6 | z6 | %143
[M:4/4] E,E,E,E, E,E,E,E, | E,E,E,E, E,E,E,E, | D,D,D,D, ^C,C,C,C, | ^C,C,C,C, C,C,C,C, | %147
 ^C,C,C,C, =C,C,C,C, | B,,B,,B,,B,, _B,,B,,B,,B,, | A,,A,,A,,A,, A,,A,,A,,A,, | D,D,D,D, D,D,D,D, | %151
 D,D,D,D, D,D,D,D, | C,C,C,C, B,,B,,B,,B,, | B,,B,,B,,B,, B,,B,,B,,B,, | %154
 B,,B,,B,,B,, B,,B,,B,,B,, | E,2 z2 D,2 z2 | C,2 z2 B,,2 z2 | A,,2 z2 G,,2 z2 | C,2 z2 z4 | %159
 ^C,2 z2 z2 F,,2 | !fermata!B,,8 |] z8 | z2 G,,A,, B,,2 G,,2 | z2 G,A, B,2 G,2 | E,4 z2 C,2 | %165
 F,,2 F,G, A,2 F,2 | D,4 z2 B,,2 | E,,2 E,F, G,2 E,2 | A,2 D,2 G,2 ^C,2 | F,2 B,,2 E,2 A,,2 | %170
 B,,2 A,,G,, F,,G,,F,,E,, | D,,4 z2 F,,2 | G,,2 F,,2 E,,2 G,,2 | A,,4 z2 ^C,2 | D,E,F,G, A,B,A,G, | %175
 F,G,F,E, D,^C,B,,A,, | G,,2 E,2 F,,2 D,2 | E,,2 C,2 D,,2 D,C, | B,,2 G,,2 G,2 D,2 | %179
 B,,2 A,,G,, D,2 D,2 | D,2 C,B,, C,D, E,2 | E,2 A,,2 A,,2 C,B,, | C,2 B,,A,, B,,C, D,2 | %183
 D,2 G,,2 G,,2 G,2- | G,2 F,4 E,2- | E,2 D,^C, B,,A,,B,,C, | D,2 G,2 A,2 A,,2 | D,4 z4 | D,4 z4 | %189
 ^D,4 z4 | z2 B,,2 ^D,2 B,,2 | E,4 z4 | ^G,4 z4 | B,4 z4 | z2 E,2 ^G,2 E,2 | A,2 A,,2 C,2 A,,2 | %196
 z2 E,2 ^G,2 E,2 | z2 A,2 C2 A,2 | E2 D2 C2 B,2 | A,2 ^G,2 F,2 A,2 | ^G,2 F,2 E,2 G,2 | %201
 F,2 A,2 B,2 B,,2 | E,4 z2 E,,2 | A,,2 C,B,, A,,2 C,B,, | A,,2 ^G,,2 A,,2 C,2 | D,4 z2 D,,2 | %206
 G,,4 z2 G,,2 | C,4 z2 C,2 | =F,4 z D,C,B,, | A,,2 D,2 E,2 E,,2 | A,,B,,C,D, E,F,E,D, | %211
 C,B,,C,A,, B,,^C,^D,B,, | E,F,G,A, B,^CB,A, | G,F,G,E, F,^G,^A,F, | B,,^C,D,E, F,G,F,E, | %215
 D,^C,D,B,, C,^D,^E,C, | F,^G,A,B, ^CDCB, | ^A,^CB,=A, ^G,F,G,^A, | B,A,G,F, E,D,E,^C, | %219
 F,2 E,2 D,2 ^C,2 | B,,2 D,^C, B,,2 D,C, | B,,2 ^A,,2 B,,2 D,2 | E,4 z2 E,,2 | A,,4 z2 A,,2 | %224
 D,4 z2 D,2 | G,2 F,E, D,2 ^C,2 | B,,2 E,2 F,2 F,,2 | B,,D,^C,B,, F,E,D,C, | B,,D,^C,B,, A,G,F,E, | %229
 ^D,F,E,D, CB,A,G, | F,E,^D,^C, B,,A,,G,,F,, | E,G,F,E, B,A,G,F, | E,G,F,E, DCB,A, | %233
 ^G,B,A,G, =FEDC | B,A,^G,F, E,D,C,B,, | A,,^C,B,,A,, E,D,C,B,, | A,,^C,B,,A,, G,F,E,D, | %237
 ^C,E,D,C, _B,A,G,F, | E,D,^C,B,, A,,G,,F,,E,, | D,F,E,D, A,G,F,E, | D,F,E,D, CB,A,G, | %241
 F,A,G,F, _EDCB, | A,G,F,E, D,C,B,,A,, | G,,2 G,A, B,2 G,2 | z2 G,,A,, B,,C,D,B,, | %245
 C,2 B,,2 A,,2 C,2 | D,4 z2 F,,2 | G,,A,,B,,C, D,E,D,C, | B,,C,B,,A,, G,,=F,,E,,D,, | %249
 C,,C,D,E, =F,E,F,G, | A,2 E,2 =F,2 G,2 | A,2 G,=F, E,F,E,D, | C,4 z2 E,2 | =F,2 E,2 D,2 F,2 | %254
 G,4 z2 B,,2 | C,D,E,=F, G,A,G,F, | E,=F,E,D, C,B,,A,,G,, | F,,2 D,2 E,,2 C,2 | %258
 D,,2 B,,2 C,,E,D,C, | B,,2 G,,2 G,2 D,2 | B,,2 A,,G,, D,2 D,2 | D,2 C,B,, C,D, E,2 | %262
 E,2 A,,2 A,,2 C,B,, | C,2 B,,A,, B,,C, D,2 | D,2 G,,2 G,,2 G,2- | G,2 F,4 E,2- | %266
 E,2 D,^C, B,,A,,B,,C, | D,2 G,2 A,2 A,,2 | D,4 z4 | F,4 z4 | A,4 z4 | z2 D,2 F,2 D,2 | G,4 z4 | %273
 G,,4 z4 | ^G,,4 z4 | z2 E,,2 ^G,,2 E,,2 | A,,B,,A,,G,, F,,A,,G,,F,, | E,,D,,E,,C,, D,,E,,F,,D,, | %278
 G,,A,,B,,C, D,E,D,^C, | B,,A,,B,,G,, A,,B,,^C,A,, | D,E,F,G, A,B,A,G, | =F,E,F,D, E,^F,^G,E, | %282
 A,B,CD EFED | CB,CA, B,^C^DB, | E,F,G,A, B,CB,A, | ^G,B,A,=G, F,A,G,F, | E,2 D,2 E,2 C,2 | %287
 D,2 C,2 B,,2 A,,2 | G,,2 G,2 B,2 G,2 | z2 D,2 F,2 D,2 | z2 G,,2 B,,2 G,,2 | D,,2 D,C, B,,2 A,,2 | %292
 G,,2 F,,2 E,,2 G,,2 | F,,2 E,,2 D,,2 F,,2 | E,,2 G,,2 A,,2 A,,,2 | D,,2 D,C, B,,2 A,,2 | %296
 G,,2 B,,A,, G,,2 B,,A,, | G,,2 F,,2 G,,2 B,,2 | C,4 z2 C,2 | F,,4 z2 F,,2 | B,,4 z2 B,,2 | %301
 E,,4 z C,B,,A,, | G,,2 C,2 D,2 D,,2 | G,,8 |] %304
V:3
 Bd/c/B/A/ BGA/B/4c/4 Bd/c/B/A/ B/G/de/f/4g/4 | fg/f/e/d/ gdd/e/4=f/4 ef/e/d/c/ dgB/c/4d/4 | %2
 cd/c/B/A/ B/A/G/A/B/c/ d/c/e/d/c/B/ A/G/F/E/D | Ta12- | a6- a g2- g f2- | %5
 f e2- ea^c d d2- d/c/e/d/c/B/ | ^AB^c- c/B/=A/G/A/F/ ^G^AB- B/A/c/B/d/c/ | %7
 ed^c B/d/c/^A/B/d/ g3- g/f/f/^e/e/f/ | f>ee/d/ g/f/e/d/^c/B/ Bf/e/d/c/ Bff/g/4a/4 | %9
 gfe- eg/f/e/d/ ^ce/d/c/B/ Aee/f/4g/4 | fed- df/e/d/^c/ B/A/G/F/G- G/e/d/c/B/A/ | %11
 g/f/e/d/b- bag f/g/ae f/e/g/f/e/f/ | Td12- | d6- d c2- c B2- | B A2- AdF G3- G/B/A/c/B/A/ | %15
 B/e/d/c/B/A/ BGA/B/4c/4 Bd/c/B/A/ B/G/de/f/4g/4 | fg/f/e/d/ gdd/e/4=f/4 ef/e/d/c/ dgB/c/4d/4 | %17
 cd/c/B/A/ B/A/G/A/B/c/ d/c/e/d/c/B/ A a2- | a/g/b/a/g/f/ gab- b/a/g/f/g/e/ f3- | %19
 f/e/g/f/a/^g/ ^a3 =a/c'/b/=g/a/f/ Tg3 | f/e/e/^d/d/e/ e/f<de/ e2 z B/A/G/F/E | %21
 z z e/d/ c/B/A z z3 A/G/F/E/D | z z d/c/ B/A/G z g/=f/e/d/c/B/ c>ag/^f/ | %23
 e/d/c/B/A/G/ F/G/G/A/A G3- G/A/DTF | G/B/d/c/B/A/ BGA/B/4c/4 Bd/c/B/A/ B/G/A/c/B/d/ | ^c6 T=c6- | %26
 c2 z z3 T_B6 | A12 |] z12 |[M:3/4] z6 | z6 | z6 | z6 | z2 z A d/e/f | Tfe e^c/d/ e/f/g | %35
 Tgf fa g/f/e/d/ | bd'/^c'/ ba g/f/e/d/ | e/d/^c/B/ A2 d2 | Td6- | d4 g2- | %40
 g/g/f/g/ e/g/d/g/ ^c/g/B/g/ | Ag f/e/f/g/ e>d | d4 z d- | d/B/^c/d/ e/f/g Ac | d2 z2 z2 | Tf6 | %46
 g2 z D G/A/B | BA AF/G/ A/B/c | cB Bd c/B/A/G/ | =FA/G/ Fd/c/ B/A/G/F/ | E2 z a g/f/e/d/ | %51
 g2 z g/f/ e/d/c/B/ | c2 z2 z2 | z2 z2 d2- | d/d/c/B/ c/d/e/c/ F/B/A/G/ | %55
 A/B/c/A/ D/G/F/E/ F/G/A/F/ | BE z2 z G- | G/E/F/G/ A/B/c DF | G/D/E/F/ G/A/B/c/ dB | %59
 GE A/B/c/d/ e/d/c/B/ | A/B/A/G/ G/F/G/A/ TF>G | G2 z2 z2 | z6 | z2 z e B/A/G | GA Ac/B/ A/G/F | %65
 FG G2 z B | ef/g/ a/b/a/g/ f/e/^d/^c/ | B2 z/ e/d/e/ c/e/A/e/ | A/c/B/c/ A/c/G/c/ F/c/E/c/ | %69
 ^DF B2- B/A/G/F/ | E/F/G/A/ B/A/B/c/ FT^d | Te6- | e6- | e/g/f/g/ e/g/d/g/ ^c/g/B/g/ | %74
 ^c/e/d/e/ c/e/B/e/ ^A/e/c/e/ | F2- F/d/^c/B/ ^A>B | B2 z g d/c/B | Bc ce/d/ c/B/A | AB B4- | %79
 B2 T^c4 | d2 z2 f2- | f/f/e/^d/ e/f/g/e/ A2- | A/e/d/^c/ d/e/f/d/ G2- | %83
 G/d/^c/B/ c/d/e/c/ F/B/A/G/ | A/B/^c/A/ D/G/F/E/ F/G/A/F/ | B/^c/d- d/f/e- e/f/g- | %86
 g/b/a- a/^c'/b- b/d'/c' | d'^c'/b/ a/g/f/e/ d/e/f | Tfe e^c/d/ e/f/g | Tgf fa g/f/e/d/ | %90
 bd'/^c'/ ba g/f/e/d/ | ^c/B/A/e/ F>E E>D | D/E/F/G/ A/B/c/d/ e/f/g | Tgf fd/e/ f/g/a | Tag g4- | %95
 g2 f2- f/g/a/f/ | d=f/e/ f4- | f/e/d/c/ d/c/B/c/ d/e/=f/d/ | ^ce/^d/ e4- | %99
 e/g/f/e/ ^d/^c/B/c/ d/e/f/d/ | Bd/^c/ d4- | d/f/e/d/ ^c/B/A/B/ c/d/e/c/ | Ac/B/ c4- | %103
 c/e/d/c/ B/A/G/A/ B/c/d/B/ | G2- G/A/B/c/ d/e/f/g/ | a/g/f/e/ d2 z2 | z2 z D G/A/B | %107
 BA AF/G/ A/B/c | cB Bd c/B/A/G/ | eg/f/ ed c/B/A/G/ | A/G/F/E/ D2 z d- | d/B/^c/d/ e/f/g ATc | %112
 d/A/B/^c/ d/e/f/g/ af | Td6- | d/d/c/d/ B/d/A/d/ ^G/d/B/d/ | Tc6- | c/c/B/d/ A/c/G/c/ F/c/A/c/ | %117
 TB6- | B3 B/A/ BB | A3 A/G/ AA | G3 G/F/ GG | Fc/B/ A/G/F/E/ D z | z6 | z6 | z2 z D G/A/B | %125
 TBA AF/G/ A/B/c | TcB Bd c/B/A/G/ | eg/f/ ed c/B/A/G/ | Ad/c/ dd dd | dc/B/ cc cc | cB/A/ B2 z2 | %131
 z2 z2 e2- | e/e/d/c/ d/e/f/d/ G/c/B/A/ | B/c/d/B/ E/A/G/F/ G/A/B/G/ | c2 z D G/A/B | %135
 TBA AF/G/ A/B/c | cB Bd c/B/A/G/ | eg/f/ ed c/B/A/G/ | F/D/E/F/ G/A/B/c/ dB | %139
 GE A/B/c/d/ e/d/c/B/ | A/c/B/A/ G/F/G/A/ F>G | G6 | z6 |[M:4/4] z4 e/^g/a/^b/ e/g/a/b/ | %144
 f/e/f/a/ f/e/f/a/ B/^d/e/g/ B/d/e/g/ | ^GBGE G/A/B/^e/ ^g/a/b/g/ | a^c'af ^D/E/F/c/ ^d/e/f/^g/ | %147
 ^e^gfa fafa | A/c/B/F/ G/^D/E/G/ ^B/d/e/g/ B/d/e/g/ | ^ced=f- f/e/f/d/ e>d | %150
 A/^c/d/f/ A/c/d/f/ B/A/B/d/ B/A/B/d/ | G/B/^c/e/ G/B/c/e/ F/E/F/A/ F/E/F/A/ | %152
 D/E/F/A/ d/e/f/a/ ^dfdB | E/F/G/B/ e/f/g/e/ ^A^cAF | A/c/B/F/ G/^D/E/G/ ^A>B F>E | TE8- | E8- | %157
 E8- | E8- | Ege^c ^A-(5:4:5A/4B/4A/4^G/4A/4 A3/2G/4A/4 | !fermata!B8 |] z8 | z8 | z8 | z8 | z8 | %166
 z8 | z8 | z8 | z4 z2 AG | F2 D2 d2 A2 | F2 ED A2 A2 | A2 GF GA B2 | B2 E2 E2 GF | G2 FE FG A2 | %175
 A2 D2 D2 d2- | d2 c4 B2- | B2 AG FDEF | GDEF GABc | dedc BAGF | E2 ed cBAG | FEDE FGAF | %182
 d2 D2 D2 F2 | G4 z2 B2 | AB^cd GABc | F2 f4 e2- | e2 de ^c3 d | d2 A2 d2 f2 | a2 d2 f2 a2 | %189
 f2 ^d2 B2 d2 | f2 a2 f2 ^d2 | EGFE BGFE | D=FED BFED | dcBA ^GFEF | ^GABc dcdB | cde=f ABcd | %196
 Bcde ^GABc | ABcd F^GAB | ^GABE GB Te2- | e8- | e8- | e4 d4- | dedc BA^GB | A2 ed c2 A2 | %204
 a2 e2 c2 BA | =fefg fedc | Bcdc BAG=F | ede=f edcB | ABcd ef^ge | a3 b ^g3 a | a4 b4 | a6 gf | %212
 e2 e4 d2- | d2 ^cB ^A2 F2 | d4 ^c4 | B6 A^G | F2 f4 e2- | e2 d4 ^c2- | c2 B2 e4- | ed^cd egfe | %220
 d2 B2 b2 f2 | d2 ^cB f2 f2 | f2 e^d ef g2 | g2 ^c2 c2 ed | e2 d^c de f2 | f2 B2 B2 e2 | %226
 d3 ^c c3 B | B4 z2 f2 | d2 B2 z2 a2 | f2 ^d2 z2 c'2 | a2 f2 ^d3 e | e2 B2 G2 E2 | z2 d2 B2 ^G2 | %233
 z2 =f2 d2 B2 | ^GABc d=fed | ^c2 z2 z2 e2 | ^c2 A2 z2 g2 | e2 ^c2 z2 _b2 | g2 e2 ^c3 d | %239
 d2 A2 F2 D2 | z2 c2 A2 F2 | z2 _e2 c2 A2 | FGAB c2 F2 | GDEF GABc | dedc BAGF | E2 ed cBAG | %246
 FEDE FGAF | d2 D2 D2 F2 | G4 z4 | z8 | z4 z2 g=f | e2 c2 c'2 g2 | e2 dc g2 g2 | g2 =fe fg a2 | %254
 a2 d2 d2 =fe | =f2 ed ef g2 | g2 c2 c2 c2- | c2 B4 A2- | A2 GF EDEF | GFGA Bcde | dgfe dcBA | %261
 GBcd efge | agfg agfe | fagf edcd | BAB^c defg | ^c2 a2 B2 g2 | A^cBA G2 g2 | f3 e e3 d | %268
 d2 A2 d2 f2 | a2 f2 d2 A2 | F2 A2 DEFG | ABcB AGAF | GBAG dBAG | =FAGF dAGF | E^GFE dcBA | %275
 ^GABc dcdB | c2 c'4 b2- | b2 ag f2 d2 | b4 a4 | g6 fe | d2 d'4 c'2- | c'2 ba ^g2 e2 | c'4 b4 | %283
 a6 gf | e^d e4 =d2- | d2 c4 BA | GFEF GBAG | FGAF D2 d2 | Td8- | d8- | d8- | d4- dcBA | %292
 Bcde GABc | ABcd FGAB | GABc EFGA | F4- FDEF | GBdc BGFG | g2 d2 B2 AG | ede=f edcB | ABcB AGFE | %300
 dcde dcBA | GABc defd | g3 a f3 g | g8 |] %304
V:4
 G,,B,,D, G,B,D G,B,,D, G,,B,,G,, | D,DC B,A,G, CA,E, F,G,E, | A,F,D, G,B,A, B,CG, D2 z | %3
 D,,F,,A,, D,F,A, D,F,,A,, D,,F,,D,, | A,,A,G, F,E,D, G,E,B,, ^C,D,B,, | %5
 E,^C,A,, D,F,E, F,G,D, A,2 G, | F,^G,^A, B,,^C,^D, E,2 z ^E,2 z | F,2 z ^G,2 z ^A,2 z B,A,G, | %8
 ^A,F,G, E,F,F,, B,,2 F,/E,/ D,/^C,/B,,^D, | E,B,/A,/G,/F,/ E,E,,G,, A,,2 E,/D,/ ^C,/B,,/A,,C, | %10
 D,A,/G,/F,/E,/ D,D,,F, G,A,B, E,F,G, | ^C,D,E, A,,B,,C, D,F,,G,, A,,G,,A,, | %12
 D,,F,,A,, D,F,D, G,B,,D, G,,B,,G,, | D,DC B,A,G, CA,E, F,G,E, | A,F,D, G,B,A, B,CA, D2 z | %15
 G,,B,,D, G,B,D G,B,,D, G,,B,,G,, | D,DC B,A,G, CA,E, F,G,E, | A,F,D, G,,B,,A,, B,,C,A,, D,2 C, | %18
 B,,^C,^D, E,F,^G, .A,2 z ^A,2 z | B,2 z ^C,2 z ^D,2 z E,D,C, | %20
 ^D,B,,C, A,,B,,B,,, E,,2 B,/A,/ G,/F,/E,^G, | A,E,/D,/C,/B,,/ A,,A,C D2 A,/G,/ F,/E,/D,F, | %22
 G,D,/C,/B,,/A,,/ G,,A,,B,, C,D,E, A,,B,,C, | F,,G,,A,, D,,E,,F,, G,,B,,C, D,C,D, | %24
 G,,2 z z3 =F,,2 z z3 | E,,2 z z3 _E,,2 z z3 | D,,2 z z3 T^C,,6 | D,,12 |] z12 | %29
[M:3/4] G,,2 B,,2 G,,2 | D,2 F,2 D,2 | G,2 z B, G,B, | CB, CD EE, | D,A,/G,/ F,E, F,D, | %34
 A,G,/F,/ E,A,, ^C,A,, | D,2 z2 D,,2 | A,,2 z2 E,,2 | A,,G,, F,,E,, F,,D,, | G,,2 G,F, E,D, | %39
 E,2 E,F, G,E, | A,B, ^CB, A,G, | F,E, D,G, A,A,, | D,2 z ^C, B,,A,, | G,,E,, A,,A,/G,/ F,E, | %44
 D,2 z F,/E,/ D,F, | A,C/B,/ A,/G,/F,/E,/ D,/C,/B,,/A,,/ | G,,2 z G,/A,/ B,G, | D2 z D,/E,/ F,D, | %48
 G,2 z B,,/A,,/ G,,B,, | D,=F,/E,/ D,/C,/B,,/A,,/ G,,/=F,,/E,,/D,,/ | C,,C/B,/ CC CC | %51
 CB,/A,/ B,B, B,B, | B,A,/G,/ A,D, G,A, | B,B,, E,F, G,G,, | C,B,, A,,C, D,E, | F,D, B,,C, D,B,, | %56
 E,F, G,F, E,D, | C,A,, D,C, B,,A,, | G,,2 z2 G,,2 | C,2 z2 A,,2 | D,B,, E,C, D,D,, | %61
 G,,B,/A,/ G,F, E,^G, | A,/B,/A,/G,/ F,D, E,F, | G,/A,/G,/F,/ E,D, ^C,E, | %64
 F,/G,/F,/E,/ ^D,B,, ^C,D, | E,E,, z/ B,,/^C,/^D,/ E,/F,/G, | G,F, F,^D,/E,/ F,/G,/A, | %67
 A,G, G,B, A,/G,/F,/E,/ | CE/D/ CB, A,/G,/F,/E,/ | F,/E,/^D,/^C,/ B,,D, E,=D, | %70
 C,B,, A,,G,,/A,,/ B,,B,,, | E,,2 z B,, ^C,D, | E,2 z E, F,G, | TF,6- | F,B, ^A,^G, F,E, | %75
 D,^C, B,,E, F,F,, | B,,B,/A,/ G,E, F,^G, | A,/B,/A,/G,/ F,D, E,F, | G,2 z/ F,/G,/A,/ B,B,, | %79
 E,F,/G,/ A,G, A,A,, | D,F,/E,/ D,^C, B,,A,, | G,,G,/F,/ G,G, G,G, | G,F,/E,/ F,F, F,F, | %83
 F,E,/D,/ E,A,, D,E, | F,F,, B,,^C, D,D,, | G,,F,, E,,G,, A,,B,, | ^C,A,, F,,G,, A,,F,, | %87
 B,,^C, D,C, B,,A,, | G,,E,, A,,G,, F,,E,, | D,,2 z2 D,2 | G,2 z2 E,2 | A,F, B,G, A,A,, | %92
 D,,2 z D, G,/A,/B, | B,A, A,F,/G,/ A,/B,/C | CB, B,G,/F,/ E,D, | C,B,,/A,,/ D,C, B,,A,, | %96
 G,,2 z2 G,,2 | C,2 z2 ^G,,2 | A,,2 z2 F,,2 | B,,2 z2 B,,2 | E,2 z2 E,,2 | A,,2 z2 A,,2 | %102
 D,2 z2 D,,2 | G,,2 z2 G,,2 | C,2 z/ C/B,/A,/ G,G,, | D,2 z/ D,/C,/B,,/ A,,D, | G,,2 B,,2 G,,2 | %107
 D,2 z D,/C,/ B,,A,, | G,,2 z2 G,,2 | C,2 z2 A,,2 | D,2 z ^C, B,,A,, | G,,E,, A,,G,, F,,E,, | %112
 D,,2 z2 D,2 | G,2 z D/C/ B,/A,/^G,/F,/ | ^G,A, G,F, E,G, | A,B, A,G, F,E, | F,G, F,E, D,F, | %117
 G,A, G,F, E,D, | E,/G,/F,/G,/ E,/G,/D,/G,/ C,/G,/B,,/G,/ | %119
 C,/E,/D,/E,/ C,/E,/B,,/E,/ A,,/E,/G,,/E,/ | A,,/C,/B,,/C,/ A,,/C,/G,,/C,/ F,,/C,/E,,/C,/ | %121
 D,,4 z/ C,/B,,/A,,/ | G,,A,, B,,C,/D,/ E,D, | C,E,/D,/ C,/B,,/A,,/G,,/ F,,D,, | G,,2 z2 E,,2 | %125
 C,,2 z C/B,/ A,/G,/F,/E,/ | D,E,/F,/ G,D, G,,B,, | C,E, A,B, A,G, | F,D, G,B,/A,/ G,/F,/E,/D,/ | %129
 C,2 z E,/D,/ C,/B,,/A,,/G,,/ | F,,D,, B,,G,, A,,B,, | C,E, F,^G, A,C, | D,C, B,,D, E,F, | %133
 G,E, C,D, E,C, | A,,B,,/C,/ D,B,, E,D, | C,B,,/A,,/ D,2 D,,2 | G,,2 z2 G,,2 | C,,2 z2 A,,2 | %138
 D,,D,/C,/ B,,A,, G,,G, | C,E,/D,/ C,B,, A,,B,,/C,/ | D,B,, E,C, D,D,, | G,,6 | z6 | %143
[M:4/4] E,E,E,E, E,E,E,E, | E,E,E,E, E,E,E,E, | D,D,D,D, ^C,C,C,C, | ^C,C,C,C, C,C,C,C, | %147
 ^C,C,C,C, =C,C,C,C, | B,,B,,B,,B,, _B,,B,,B,,B,, | A,,A,,A,,A,, A,,A,,A,,A,, | D,D,D,D, D,D,D,D, | %151
 D,D,D,D, D,D,D,D, | C,C,C,C, B,,B,,B,,B,, | B,,B,,B,,B,, B,,B,,B,,B,, | %154
 B,,B,,B,,B,, B,,B,,B,,B,, | E,2 z2 D,2 z2 | C,2 z2 B,,2 z2 | A,,2 z2 G,,2 z2 | C,2 z2 z4 | %159
 ^C,2 z2 z2 F,,2 | !fermata!B,,8 |] z8 | z2 G,,A,, B,,2 G,,2 | z2 G,A, B,2 G,2 | E,4 z2 C,2 | %165
 F,,2 F,G, A,2 F,2 | D,4 z2 B,,2 | E,,2 E,F, G,2 E,2 | A,2 D,2 G,2 ^C,2 | F,2 B,,2 E,2 A,,2 | %170
 B,,2 A,,G,, F,,G,,F,,E,, | D,,4 z2 F,,2 | G,,2 F,,2 E,,2 G,,2 | A,,4 z2 ^C,2 | D,E,F,G, A,B,A,G, | %175
 F,G,F,E, D,^C,B,,A,, | G,,2 E,2 F,,2 D,2 | E,,2 C,2 D,,2 D,C, | B,,2 G,,2 G,2 D,2 | %179
 B,,2 A,,G,, D,2 D,2 | D,2 C,B,, C,D, E,2 | E,2 A,,2 A,,2 C,B,, | C,2 B,,A,, B,,C, D,2 | %183
 D,2 G,,2 G,,2 G,2- | G,2 F,4 E,2- | E,2 D,^C, B,,A,,B,,C, | D,2 G,2 A,2 A,,2 | D,4 z4 | D,4 z4 | %189
 ^D,4 z4 | z2 B,,2 ^D,2 B,,2 | E,4 z4 | ^G,4 z4 | B,4 z4 | z2 E,2 ^G,2 E,2 | A,2 A,,2 C,2 A,,2 | %196
 z2 E,2 ^G,2 E,2 | z2 A,2 C2 A,2 | E2 D2 C2 B,2 | A,2 ^G,2 F,2 A,2 | ^G,2 F,2 E,2 G,2 | %201
 F,2 A,2 B,2 B,,2 | E,4 z2 E,,2 | A,,2 C,B,, A,,2 C,B,, | A,,2 ^G,,2 A,,2 C,2 | D,4 z2 D,,2 | %206
 G,,4 z2 G,,2 | C,4 z2 C,2 | =F,4 z D,C,B,, | A,,2 D,2 E,2 E,,2 | A,,B,,C,D, E,F,E,D, | %211
 C,B,,C,A,, B,,^C,^D,B,, | E,F,G,A, B,^CB,A, | G,F,G,E, F,^G,^A,F, | B,,^C,D,E, F,G,F,E, | %215
 D,^C,D,B,, C,^D,^E,C, | F,^G,A,B, ^CDCB, | ^A,^CB,=A, ^G,F,G,^A, | B,A,G,F, E,D,E,^C, | %219
 F,2 E,2 D,2 ^C,2 | B,,2 D,^C, B,,2 D,C, | B,,2 ^A,,2 B,,2 D,2 | E,4 z2 E,,2 | A,,4 z2 A,,2 | %224
 D,4 z2 D,2 | G,2 F,E, D,2 ^C,2 | B,,2 E,2 F,2 F,,2 | B,,D,^C,B,, F,E,D,C, | B,,D,^C,B,, A,G,F,E, | %229
 ^D,F,E,D, CB,A,G, | F,E,^D,^C, B,,A,,G,,F,, | E,G,F,E, B,A,G,F, | E,G,F,E, DCB,A, | %233
 ^G,B,A,G, =FEDC | B,A,^G,F, E,D,C,B,, | A,,^C,B,,A,, E,D,C,B,, | A,,^C,B,,A,, G,F,E,D, | %237
 ^C,E,D,C, _B,A,G,F, | E,D,^C,B,, A,,G,,F,,E,, | D,F,E,D, A,G,F,E, | D,F,E,D, CB,A,G, | %241
 F,A,G,F, _EDCB, | A,G,F,E, D,C,B,,A,, | G,,2 G,A, B,2 G,2 | z2 G,,A,, B,,C,D,B,, | %245
 C,2 B,,2 A,,2 C,2 | D,4 z2 F,,2 | G,,A,,B,,C, D,E,D,C, | B,,C,B,,A,, G,,=F,,E,,D,, | %249
 C,,C,D,E, =F,E,F,G, | A,2 E,2 =F,2 G,2 | A,2 G,=F, E,F,E,D, | C,4 z2 E,2 | =F,2 E,2 D,2 F,2 | %254
 G,4 z2 B,,2 | C,D,E,=F, G,A,G,F, | E,=F,E,D, C,B,,A,,G,, | F,,2 D,2 E,,2 C,2 | %258
 D,,2 B,,2 C,,E,D,C, | B,,2 G,,2 G,2 D,2 | B,,2 A,,G,, D,2 D,2 | D,2 C,B,, C,D, E,2 | %262
 E,2 A,,2 A,,2 C,B,, | C,2 B,,A,, B,,C, D,2 | D,2 G,,2 G,,2 G,2- | G,2 F,4 E,2- | %266
 E,2 D,^C, B,,A,,B,,C, | D,2 G,2 A,2 A,,2 | D,4 z4 | F,4 z4 | A,4 z4 | z2 D,2 F,2 D,2 | G,4 z4 | %273
 G,,4 z4 | ^G,,4 z4 | z2 E,,2 ^G,,2 E,,2 | A,,B,,A,,G,, F,,A,,G,,F,, | E,,D,,E,,C,, D,,E,,F,,D,, | %278
 G,,A,,B,,C, D,E,D,^C, | B,,A,,B,,G,, A,,B,,^C,A,, | D,E,F,G, A,B,A,G, | =F,E,F,D, E,^F,^G,E, | %282
 A,B,CD EFED | CB,CA, B,^C^DB, | E,F,G,A, B,CB,A, | ^G,B,A,=G, F,A,G,F, | E,2 D,2 E,2 C,2 | %287
 D,2 C,2 B,,2 A,,2 | G,,2 G,2 B,2 G,2 | z2 D,2 F,2 D,2 | z2 G,,2 B,,2 G,,2 | D,,2 D,C, B,,2 A,,2 | %292
 G,,2 F,,2 E,,2 G,,2 | F,,2 E,,2 D,,2 F,,2 | E,,2 G,,2 A,,2 A,,,2 | D,,2 D,C, B,,2 A,,2 | %296
 G,,2 B,,A,, G,,2 B,,A,, | G,,2 F,,2 G,,2 B,,2 | C,4 z2 C,2 | F,,4 z2 F,,2 | B,,4 z2 B,,2 | %301
 E,,4 z C,B,,A,, | G,,2 C,2 D,2 D,,2 | G,,8 |] %304

